X:76
T:Ty Croes Bach yn Rhiw
M:2/4
L:1/16
Q:90
C:Ceri Rhys Matthews
R:Scottische
K:D
F2A2 F3A | FAGF E2E2 | AGFA GFAG | A
GFE D2D2 :||: AGFG A2A2 | GFEF G2G2 |
FEDE F2F2 | EDEF E2A2 | AGFG A2A2 |
GFEF G2G2 | FEDE F2F2 | E2A2 D4 :||
